packages/components/svg/outline/eye-closed.svg

<svg width="24" height="24" viewBox="0 0 24 24" fill="currentColor"
  xmlns="http://www.w3.org/2000/svg">
  <path fill-rule="evenodd" clip-rule="evenodd"
    d="M12 5C9.46487 5.00002 6.88189 6.09969 4.7284 8.38942C4.35003 8.79173 3.71716 8.81113 3.31485 8.43276C2.91254 8.05439 2.89314 7.42152 3.27151 7.01921C5.76319 4.36989 8.85766 3.00002 12 3C15.1423 2.99998 18.2367 4.36978 20.7284 7.01902C21.1068 7.42133 21.0874 8.05419 20.6851 8.43257C20.2828 8.81095 19.6499 8.79155 19.2715 8.38924C17.1181 6.0996 14.5351 4.99998 12 5ZM3.31485 12.2097C3.71716 11.8313 4.35003 11.8507 4.7284 12.253C6.88186 14.5427 9.46483 15.6423 11.9999 15.6423C14.5351 15.6423 17.118 14.5427 19.2715 12.253C19.6499 11.8507 20.2828 11.8313 20.6851 12.2097C21.0874 12.588 21.1068 13.2209 20.7284 13.6232C19.5457 14.8807 18.2273 15.8499 16.8323 16.5212L17.8559 18.2148C18.1415 18.6875 17.9899 19.3023 17.5172 19.5879C17.0446 19.8736 16.4298 19.722 16.1442 19.2493L14.9297 17.2397C14.2944 17.4166 13.6495 17.5357 13 17.596V20C13 20.5523 12.5523 21 12 21C11.4477 21 11 20.5523 11 20V17.596C10.3505 17.5357 9.70562 17.4166 9.07033 17.2397L7.85585 19.2493C7.5702 19.722 6.95545 19.8736 6.48278 19.5879C6.01011 19.3023 5.8585 18.6875 6.14415 18.2148L7.16764 16.5213C5.77269 15.85 4.4542 14.8807 3.27151 13.6232C2.89314 13.2209 2.91254 12.588 3.31485 12.2097Z"
  />
</svg>

<svg xmlns="http://www.w3.org/2000/svg" width="24" height="24" fill="currentColor" viewBox="0 0 24 24">
  <path  d="M11 20v-2.405a10.96 10.96 0 0 1-1.93-.356l-1.215 2.01a1 1 0 1 1-1.71-1.034l1.023-1.694c-1.395-.672-2.714-1.64-3.897-2.898a1 1 0 0 1 1.458-1.37c2.153 2.29 4.736 3.39 7.271 3.39s5.118-1.1 7.271-3.39a1 1 0 0 1 1.457 1.37c-1.182 1.258-2.502 2.226-3.897 2.898l1.024 1.694a1 1 0 1 1-1.71 1.034l-1.215-2.01a10.94 10.94 0 0 1-1.93.356V20a1 1 0 1 1-2 0Zm1-17c3.142 0 6.237 1.37 8.729 4.019a1 1 0 0 1-1.457 1.37C17.117 6.1 14.534 5 12 5S6.882 6.1 4.729 8.39A1 1 0 0 1 3.27 7.02C5.763 4.37 8.858 3 12 3Z"/>
</svg>
